X: 1855
T: Arisaig
R: jig
M: 6/8
K: Cdorian
K:Eb
B|eG[EG,] B,EG|FAF CFA|G[EG,]c BGE|FGA Bcd|
eG[EG,] B,EG|FAF CFA|G[EG,]c BFD|[E3G,3] [E2G,2]:|
|:A,|(G,B,E) (G,B,E)|(A,CE) (A,CE)|B,DF [EG,]GB|edc BG[EG,]|
G,B,E) (G,B,E)|(A,CE) (A,CE)|B,Dc BFD|[E3G,3] [E2G,2]:|

